icons/1_Primary/WAX.svg

<svg width="1024" height="1024" fill="none" xmlns="http://www.w3.org/2000/svg"><g clip-path="url(#a)"><path d="M512 1024c282.77 0 512-229.23 512-512S794.77 0 512 0 0 229.23 0 512s229.23 512 512 512Z" fill="#F8C18C"/><path d="M577.21 391.86c24.15 0 48.31-.05 72.45 0 12.66 10.43 25.13 21.11 37.72 31.64l183.35 154.26c3 2.62 6.22 5 9 7.79h-72.35A95185.278 95185.278 0 0 0 756 542.43c-17.14 14.38-34.273 28.757-51.4 43.13h-60.8c-3.41-3.65-6.53-7.65-9.76-11.5v.09c-6.54-7.85-13.13-15.65-19.68-23.48-33.65 0-67.31.05-101 0 8.45-10.18 17-20.27 25.49-30.44h49.82c-12.64-15.2-25.4-30.29-38.09-45.45-44.2 52.473-88.38 104.957-132.54 157.45h-60.88c12.89-15.63 26.08-31 39.07-46.58h-64.66a68418.095 68418.095 0 0 0-34.27-94.2c-6.46 17.21-12.61 34.54-18.93 51.8-5.153 14.14-10.3 28.277-15.44 42.41h-65.55c-16.173-44.667-32.4-89.28-48.68-133.84-1.57-4.43-3.3-8.81-4.75-13.27h49.54c12.31 33.53 24.38 67.16 36.73 100.68a33481.257 33481.257 0 0 1 36.62-100.66h60.86c12.2 33.36 24.383 66.77 36.55 100.23 6.3-16.86 12.33-33.81 18.53-50.71l18-49.64h49.67c-17.633 48.593-35.3 97.17-53 145.73 40.9-48.553 81.783-97.127 122.65-145.72h61a67567.97 67567.97 0 0 1 93.5 111.4c15-12.64 30.1-25.2 45.09-37.88-47.52-40.027-95.013-80.067-142.48-120.12Zm207.46 65.5c-4.14 3.56-8.49 6.88-12.48 10.59 5.32 4.78 10.95 9.23 16.39 13.89 6.587 5.513 13.17 11.033 19.75 16.56a23155.414 23155.414 0 0 0 42.1-35.25c9.87-8.2 19.61-16.57 29.57-24.66v-.17c-6-.27-12 .21-18 .11h-53.7a2.268 2.268 0 0 0-1.76.64 7053.97 7053.97 0 0 1-21.87 18.29Z" fill="#fff"/></g><defs><clipPath id="a"><path fill="#fff" d="M0 0h1024v1024H0z"/></clipPath></defs></svg>

<svg width="1024" height="1024" viewBox="0 0 1024 1024" fill="none" xmlns="http://www.w3.org/2000/svg">
<g clip-path="url(#clip0_2_3888)">
<path d="M512 1024C794.77 1024 1024 794.77 1024 512C1024 229.23 794.77 0 512 0C229.23 0 0 229.23 0 512C0 794.77 229.23 1024 512 1024Z" fill="#F8C18C"/>
<path d="M577.21 391.86C601.36 391.86 625.52 391.81 649.66 391.86C662.32 402.29 674.79 412.97 687.38 423.5L870.73 577.76C873.73 580.38 876.95 582.76 879.73 585.55H807.38C790.273 571.183 773.147 556.81 756 542.43C738.86 556.81 721.727 571.187 704.6 585.56H643.8C640.39 581.91 637.27 577.91 634.04 574.06V574.15C627.5 566.3 620.91 558.5 614.36 550.67C580.71 550.67 547.05 550.72 513.36 550.67C521.81 540.49 530.36 530.4 538.85 520.23H588.67C576.03 505.03 563.27 489.94 550.58 474.78C506.38 527.253 462.2 579.737 418.04 632.23H357.16C370.05 616.6 383.24 601.23 396.23 585.65H331.57C320.17 554.243 308.747 522.843 297.3 491.45C290.84 508.66 284.69 525.99 278.37 543.25C273.217 557.39 268.07 571.527 262.93 585.66H197.38C181.207 540.993 164.98 496.38 148.7 451.82C147.13 447.39 145.4 443.01 143.95 438.55H193.49C205.8 472.08 217.87 505.71 230.22 539.23C242.373 505.657 254.58 472.103 266.84 438.57H327.7C339.9 471.93 352.083 505.34 364.25 538.8C370.55 521.94 376.58 504.99 382.78 488.09L400.78 438.45H450.45C432.817 487.043 415.15 535.62 397.45 584.18C438.35 535.627 479.233 487.053 520.1 438.46H581.1C612.307 475.56 643.473 512.693 674.6 549.86C689.6 537.22 704.7 524.66 719.69 511.98C672.17 471.953 624.677 431.913 577.21 391.86ZM784.67 457.36C780.53 460.92 776.18 464.24 772.19 467.95C777.51 472.73 783.14 477.18 788.58 481.84C795.167 487.353 801.75 492.873 808.33 498.4C822.377 486.667 836.41 474.917 850.43 463.15C860.3 454.95 870.04 446.58 880 438.49V438.32C874 438.05 868 438.53 862 438.43H808.3C807.978 438.405 807.654 438.449 807.351 438.559C807.047 438.67 806.771 438.844 806.54 439.07C799.262 445.182 791.972 451.278 784.67 457.36Z" fill="white"/>
</g>
<defs>
<clipPath id="clip0_2_3888">
<rect width="1024" height="1024" fill="white"/>
</clipPath>
</defs>
</svg>
